X:356
T: O DU LIEBER AUGUSTIN
N: E0984
O: Europa, Mitteleuropa, Deutschland
R: Tanz - Lied, Reigen
M: 3/4
L: 1/8
K: G
 | d3edc | B2G2G2 |
A2D2D2 | B2G2G2 |
d3edc | B2G2G2 |
A2D2D2 | G2z4 |
A2D2D2 | B2G2G2 |
A2D2D2 | B2G2G2 |
d3edc | B2G2G2 |
A2D2D2 | G2z4

@@@ Tune index: 4669
